svgs/thin/spray-can-sparkles.svg

<svg xmlns="http://www.w3.org/2000/svg" viewBox="0 0 512 512"><!--! Font Awesome Pro 6.6.0 by @fontawesome - https://fontawesome.com License - https://fontawesome.com/license (Commercial License) Copyright 2024 Fonticons, Inc. --><path d="M136 0l48 0c22.1 0 40 17.9 40 40l0 80 0 8-16 0 0-8 0-80c0-13.3-10.7-24-24-24l-48 0c-13.3 0-24 10.7-24 24l0 80 0 8-16 0 0-8 0-80c0-22.1 17.9-40 40-40zM96 176c-44.2 0-80 35.8-80 80l0 192c0 26.5 21.5 48 48 48l192 0c26.5 0 48-21.5 48-48l0-192c0-44.2-35.8-80-80-80L96 176zM0 256c0-53 43-96 96-96l128 0c53 0 96 43 96 96l0 192c0 35.3-28.7 64-64 64L64 512c-35.3 0-64-28.7-64-64L0 256zm160 8a72 72 0 1 0 0 144 72 72 0 1 0 0-144zm88 72A88 88 0 1 1 72 336a88 88 0 1 1 176 0zM336 0c4.4 0 8 3.6 8 8l0 32 32 0c4.4 0 8 3.6 8 8s-3.6 8-8 8l-32 0 0 32c0 4.4-3.6 8-8 8s-8-3.6-8-8l0-32-32 0c-4.4 0-8-3.6-8-8s3.6-8 8-8l32 0 0-32c0-4.4 3.6-8 8-8zM472 8l0 32 32 0c4.4 0 8 3.6 8 8s-3.6 8-8 8l-32 0 0 32c0 4.4-3.6 8-8 8s-8-3.6-8-8l0-32-32 0c-4.4 0-8-3.6-8-8s3.6-8 8-8l32 0 0-32c0-4.4 3.6-8 8-8s8 3.6 8 8zm-8 184c4.4 0 8 3.6 8 8l0 32 32 0c4.4 0 8 3.6 8 8s-3.6 8-8 8l-32 0 0 32c0 4.4-3.6 8-8 8s-8-3.6-8-8l0-32-32 0c-4.4 0-8-3.6-8-8s3.6-8 8-8l32 0 0-32c0-4.4 3.6-8 8-8zm-56-88l0 32 32 0c4.4 0 8 3.6 8 8s-3.6 8-8 8l-32 0 0 32c0 4.4-3.6 8-8 8s-8-3.6-8-8l0-32-32 0c-4.4 0-8-3.6-8-8s3.6-8 8-8l32 0 0-32c0-4.4 3.6-8 8-8s8 3.6 8 8z"/></svg>

<svg xmlns="http://www.w3.org/2000/svg" viewBox="0 0 512 512"><!--! Font Awesome Pro 6.5.2 by @fontawesome - https://fontawesome.com License - https://fontawesome.com/license (Commercial License) Copyright 2024 Fonticons, Inc. --><path d="M136 0h48c22.1 0 40 17.9 40 40v80c0 4.4-3.6 8-8 8s-8-3.6-8-8V40c0-13.3-10.7-24-24-24H136c-13.3 0-24 10.7-24 24v80c0 4.4-3.6 8-8 8s-8-3.6-8-8V40c0-22.1 17.9-40 40-40zM96 176c-44.2 0-80 35.8-80 80V448c0 26.5 21.5 48 48 48H256c26.5 0 48-21.5 48-48V256c0-44.2-35.8-80-80-80H96zM0 256c0-53 43-96 96-96H224c53 0 96 43 96 96V448c0 35.3-28.7 64-64 64H64c-35.3 0-64-28.7-64-64V256zm160 8a72 72 0 1 0 0 144 72 72 0 1 0 0-144zm88 72A88 88 0 1 1 72 336a88 88 0 1 1 176 0zM336 0c4.4 0 8 3.6 8 8V40h32c4.4 0 8 3.6 8 8s-3.6 8-8 8H344V88c0 4.4-3.6 8-8 8s-8-3.6-8-8V56H296c-4.4 0-8-3.6-8-8s3.6-8 8-8h32V8c0-4.4 3.6-8 8-8zM472 8V40h32c4.4 0 8 3.6 8 8s-3.6 8-8 8H472V88c0 4.4-3.6 8-8 8s-8-3.6-8-8V56H424c-4.4 0-8-3.6-8-8s3.6-8 8-8h32V8c0-4.4 3.6-8 8-8s8 3.6 8 8zm-8 184c4.4 0 8 3.6 8 8v32h32c4.4 0 8 3.6 8 8s-3.6 8-8 8H472v32c0 4.4-3.6 8-8 8s-8-3.6-8-8V248H424c-4.4 0-8-3.6-8-8s3.6-8 8-8h32V200c0-4.4 3.6-8 8-8zm-56-88v32h32c4.4 0 8 3.6 8 8s-3.6 8-8 8H408v32c0 4.4-3.6 8-8 8s-8-3.6-8-8V152H360c-4.4 0-8-3.6-8-8s3.6-8 8-8h32V104c0-4.4 3.6-8 8-8s8 3.6 8 8z"/></svg>
